!! 00000] TT[WS
!!!OTL: Huma kaihua
!!!ARE: Asia, China, Shanxi Lishan
!! Ethnic Group: Han
!! WII, 138 (2)
!!!SCT: J0612
!!!YEM: Copyright 1995, estate of Helmut Schaffrath.
**kern
*ICvox
*Ivox
*M2/4
*k[f#]
*G:
{8a
8e
4d
=1
8f#
8g
8a
8dd
=2
8a
8g
8f#
8e
=3
2d}
=4
{8a
8e
4d
=5
8f#
8g
8a
8dd
=6
2a}
=7
{8a
8e
4d
=8
4d
8g
8a
=9
4dd
16a
16g
16a
16dd
=10
8a
8g
8f#
8e
=11
4.d}
{8d
=12
8g
8a
8f#
8e
=13
2d}
==
!!!AGN: Xiaodiao. Qingge, Aisu
!!!ONB: ESAC (Essen Associative Code) Database: CHINA
!!!AMT: simple duple
!!!AIN: vox
!!!EED: Helmut Schaffrath
!!!EEV: 1.0
*-
